128/places/folder-templates.svg

<?xml version="1.0" encoding="UTF-8" standalone="no"?>
<!-- Created with Inkscape (http://www.inkscape.org/) -->

<svg
   xmlns:dc="http://purl.org/dc/elements/1.1/"
   xmlns:cc="http://creativecommons.org/ns#"
   xmlns:rdf="http://www.w3.org/1999/02/22-rdf-syntax-ns#"
   xmlns:svg="http://www.w3.org/2000/svg"
   xmlns="http://www.w3.org/2000/svg"
   xmlns:xlink="http://www.w3.org/1999/xlink"
   xmlns:sodipodi="http://sodipodi.sourceforge.net/DTD/sodipodi-0.dtd"
   xmlns:inkscape="http://www.inkscape.org/namespaces/inkscape"
   width="128"
   height="128"
   viewBox="0 0 33.866667 33.866667"
   version="1.1"
   id="svg2634"
   inkscape:version="0.92.4 5da689c313, 2019-01-14"
   sodipodi:docname="folder-templates.svg">
  <title
     id="title3250">Boston Icons</title>
  <defs
     id="defs2628">
    <linearGradient
       inkscape:collect="always"
       xlink:href="#linearGradient1027"
       id="linearGradient1029"
       x1="99.48333"
       y1="170"
       x2="99.48333"
       y2="155.18333"
       gradientUnits="userSpaceOnUse"
       gradientTransform="translate(-3.7299999e-6,2.292875e-5)" />
    <linearGradient
       inkscape:collect="always"
       id="linearGradient1027">
      <stop
         style="stop-color:#2d8cff;stop-opacity:1"
         offset="0"
         id="stop1023" />
      <stop
         style="stop-color:#2d8cff;stop-opacity:0"
         offset="1"
         id="stop1025" />
    </linearGradient>
  </defs>
  <sodipodi:namedview
     id="base"
     pagecolor="#ffffff"
     bordercolor="#00ffed"
     borderopacity="1"
     inkscape:pageopacity="1"
     inkscape:pageshadow="2"
     inkscape:zoom="5.6"
     inkscape:cx="63.820932"
     inkscape:cy="47.149673"
     inkscape:document-units="px"
     inkscape:current-layer="layer1"
     showgrid="false"
     showguides="false"
     inkscape:guide-bbox="true"
     fit-margin-top="0"
     fit-margin-left="0"
     fit-margin-right="0"
     fit-margin-bottom="0"
     inkscape:window-width="1920"
     inkscape:window-height="1016"
     inkscape:window-x="0"
     inkscape:window-y="27"
     inkscape:window-maximized="1"
     units="px">
    <inkscape:grid
       type="xygrid"
       id="grid3182"
       spacingx="0.52916667"
       spacingy="0.52916667"
       empspacing="4"
       originx="-82.550004"
       originy="-127.00001"
       dotted="false" />
    <sodipodi:guide
       position="-4.268358e-06,27.516666"
       orientation="1,0"
       id="guide3216"
       inkscape:locked="false" />
    <sodipodi:guide
       position="3.7041618,33.866666"
       orientation="0,1"
       id="guide3218"
       inkscape:locked="false" />
    <sodipodi:guide
       position="33.866657,24.870836"
       orientation="1,0"
       id="guide3220"
       inkscape:locked="false" />
    <sodipodi:guide
       position="32.279157,-4.1479283e-06"
       orientation="0,1"
       id="guide3222"
       inkscape:locked="false" />
    <sodipodi:guide
       position="15.345829,32.808336"
       orientation="0,1"
       id="guide3224"
       inkscape:locked="false" />
    <sodipodi:guide
       position="-4.7625023,1.0583259"
       orientation="0,1"
       id="guide3226"
       inkscape:locked="false" />
    <sodipodi:guide
       position="1.0583287,17.462496"
       orientation="1,0"
       id="guide3228"
       inkscape:locked="false" />
    <sodipodi:guide
       position="32.808327,20.108336"
       orientation="1,0"
       id="guide3230"
       inkscape:locked="false" />
    <sodipodi:guide
       position="15.874995,31.750006"
       orientation="0,1"
       id="guide3232"
       inkscape:locked="false" />
    <sodipodi:guide
       position="2.1166617,24.870836"
       orientation="1,0"
       id="guide3234"
       inkscape:locked="false" />
    <sodipodi:guide
       position="3.1749958,25.400006"
       orientation="1,0"
       id="guide3236"
       inkscape:locked="false" />
    <sodipodi:guide
       position="5.2916633,15.345824"
       orientation="1,0"
       id="guide3238"
       inkscape:locked="false" />
    <sodipodi:guide
       position="28.574997,25.400006"
       orientation="1,0"
       id="guide3240"
       inkscape:locked="false" />
    <sodipodi:guide
       position="30.691657,24.341666"
       orientation="1,0"
       id="guide3242"
       inkscape:locked="false" />
    <sodipodi:guide
       position="31.749997,21.695836"
       orientation="1,0"
       id="guide3244"
       inkscape:locked="false" />
    <sodipodi:guide
       position="21.695827,2.1166659"
       orientation="0,1"
       id="guide3246"
       inkscape:locked="false" />
    <sodipodi:guide
       position="16.404162,3.1749959"
       orientation="0,1"
       id="guide3248"
       inkscape:locked="false" />
    <sodipodi:guide
       position="26.987497,30.162491"
       orientation="0,1"
       id="guide843"
       inkscape:locked="false" />
    <sodipodi:guide
       position="30.162497,26.458325"
       orientation="0,1"
       id="guide845"
       inkscape:locked="false" />
    <sodipodi:guide
       position="20.10833,14.287491"
       orientation="0,1"
       id="guide910"
       inkscape:locked="false" />
    <sodipodi:guide
       position="19.579163,16.404158"
       orientation="0,1"
       id="guide978"
       inkscape:locked="false" />
  </sodipodi:namedview>
  <metadata
     id="metadata2631">
    <rdf:RDF>
      <cc:Work
         rdf:about="">
        <dc:format>image/svg+xml</dc:format>
        <dc:type
           rdf:resource="http://purl.org/dc/dcmitype/StillImage" />
        <dc:title>Boston Icons</dc:title>
        <cc:license
           rdf:resource="dribbble.com/chrisdiaz" />
        <dc:creator>
          <cc:Agent>
            <dc:title>Christian Díaz</dc:title>
          </cc:Agent>
        </dc:creator>
        <dc:date>2019</dc:date>
        <dc:publisher>
          <cc:Agent>
            <dc:title>Christian Díaz</dc:title>
          </cc:Agent>
        </dc:publisher>
        <dc:identifier>christiandiaz.design [at] gmail [dot] com</dc:identifier>
        <dc:subject>
          <rdf:Bag>
            <rdf:li>GNOME icon Theme</rdf:li>
          </rdf:Bag>
        </dc:subject>
        <dc:description>diazchris.deviantart.com | dribbble.com/chrisdiaz</dc:description>
      </cc:Work>
    </rdf:RDF>
  </metadata>
  <g
     inkscape:label="Capa 1"
     inkscape:groupmode="layer"
     id="layer1"
     transform="translate(-82.550003,-136.13333)">
    <g
       id="g851">
      <path
         sodipodi:nodetypes="ccccccc"
         inkscape:connector-curvature="0"
         id="path957"
         d="m 83.608329,140.89584 h 12.170834 l 3.704166,2.64583 h 15.875001 v 23.28334 l -31.750001,-1e-5 -10e-7,-25.4"
         style="fill:#2d8cff;stroke:none;stroke-width:0.26458335px;stroke-linecap:butt;stroke-linejoin:miter;stroke-opacity:1" />
      <path
         sodipodi:nodetypes="cccccccccccccc"
         inkscape:connector-curvature="0"
         id="path959"
         d="m 98.530832,143.54166 -3.016249,2.11668 H 83.608332 v 21.16665 h 31.750008 v -23.28333 z m 0.238125,0.52917 h 16.060213 v 22.225 H 84.137499 v -20.10832 h 11.641667 z"
         style="fill:#2d8cff;fill-opacity:1;stroke:none;stroke-width:0.26458335px;stroke-linecap:butt;stroke-linejoin:miter;stroke-opacity:1" />
      <path
         sodipodi:nodetypes="ccccccc"
         inkscape:connector-curvature="0"
         id="path845"
         d="m 84.137495,146.18752 h 11.641667 l 2.989795,-2.11667 h 16.060213 v 22.225 H 84.137495 Z"
         style="fill:#6fb7ff;fill-opacity:1;stroke:none;stroke-width:0.26458335px;stroke-linecap:butt;stroke-linejoin:miter;stroke-opacity:1" />
      <rect
         y="155.18333"
         x="84.137497"
         height="11.1125"
         width="30.691668"
         id="rect1005"
         style="opacity:0.3;fill:url(#linearGradient1029);fill-opacity:1;stroke:none;stroke-width:0.5291667;stroke-linejoin:bevel;stroke-miterlimit:4;stroke-dasharray:none;stroke-opacity:1" />
      <path
         sodipodi:nodetypes="cccccc"
         inkscape:connector-curvature="0"
         id="path843"
         d="m 84.137496,141.42502 h 11.377086 l 3.042709,2.11666 -3.042709,2.11667 H 84.137496 Z"
         style="fill:#6fb7ff;fill-opacity:1;stroke:none;stroke-width:0.26458335px;stroke-linecap:butt;stroke-linejoin:miter;stroke-opacity:1" />
      <path
         id="path869"
         transform="matrix(0.26458334,0,0,0.26458334,82.550003,136.13333)"
         d="M 46,50 V 98 H 82 V 66 60 L 72,50 Z m 2,2 h 22 v 10 h 10 v 5.777344 L 48.25,96 H 48 Z m 24,1 7,7 h -7 z m 8,17.5 V 96 h -2 v -2 h -2 v 2 h -2 v -2 h -2 v 2 h -2 v -2 h -2 v 2 h -2 v -2 h -2 v 2 h -2 v -2 h -2 v 2 h -2 v -2 h -2 v 2 H 51.300781 Z M 76,80 62,92 h 14 z m -2,4.400391 V 90 h -6.599609 z"
         style="fill:#2d8cff;fill-opacity:1;stroke:none;stroke-width:1px;stroke-linecap:butt;stroke-linejoin:miter;stroke-opacity:1"
         inkscape:connector-curvature="0" />
    </g>
  </g>
</svg>

<?xml version="1.0" encoding="UTF-8" standalone="no"?>
<!-- Created with Inkscape (http://www.inkscape.org/) -->

<svg
   xmlns:dc="http://purl.org/dc/elements/1.1/"
   xmlns:cc="http://creativecommons.org/ns#"
   xmlns:rdf="http://www.w3.org/1999/02/22-rdf-syntax-ns#"
   xmlns:svg="http://www.w3.org/2000/svg"
   xmlns="http://www.w3.org/2000/svg"
   xmlns:xlink="http://www.w3.org/1999/xlink"
   xmlns:sodipodi="http://sodipodi.sourceforge.net/DTD/sodipodi-0.dtd"
   xmlns:inkscape="http://www.inkscape.org/namespaces/inkscape"
   width="128"
   height="128"
   viewBox="0 0 33.866667 33.866667"
   version="1.1"
   id="svg2634"
   inkscape:version="0.92.4 5da689c313, 2019-01-14"
   sodipodi:docname="folder-templates.svg">
  <title
     id="title3250">Boston Icons</title>
  <defs
     id="defs2628">
    <linearGradient
       inkscape:collect="always"
       xlink:href="#linearGradient1027"
       id="linearGradient1029"
       x1="99.48333"
       y1="170"
       x2="99.48333"
       y2="155.18333"
       gradientUnits="userSpaceOnUse"
       gradientTransform="translate(-3.7299999e-6,2.292875e-5)" />
    <linearGradient
       inkscape:collect="always"
       id="linearGradient1027">
      <stop
         style="stop-color:#7fb9ec;stop-opacity:1;"
         offset="0"
         id="stop1023" />
      <stop
         style="stop-color:#7fb9ec;stop-opacity:0;"
         offset="1"
         id="stop1025" />
    </linearGradient>
  </defs>
  <sodipodi:namedview
     id="base"
     pagecolor="#ffffff"
     bordercolor="#00ffed"
     borderopacity="1"
     inkscape:pageopacity="1"
     inkscape:pageshadow="2"
     inkscape:zoom="5.6"
     inkscape:cx="60.695932"
     inkscape:cy="54.471101"
     inkscape:document-units="px"
     inkscape:current-layer="layer1"
     showgrid="false"
     showguides="false"
     inkscape:guide-bbox="true"
     fit-margin-top="0"
     fit-margin-left="0"
     fit-margin-right="0"
     fit-margin-bottom="0"
     inkscape:window-width="1920"
     inkscape:window-height="1016"
     inkscape:window-x="0"
     inkscape:window-y="27"
     inkscape:window-maximized="1"
     units="px">
    <inkscape:grid
       type="xygrid"
       id="grid3182"
       spacingx="0.52916667"
       spacingy="0.52916667"
       empspacing="4"
       originx="-82.550004"
       originy="-127.00001"
       dotted="false" />
    <sodipodi:guide
       position="-4.268358e-06,27.516666"
       orientation="1,0"
       id="guide3216"
       inkscape:locked="false" />
    <sodipodi:guide
       position="3.7041618,33.866666"
       orientation="0,1"
       id="guide3218"
       inkscape:locked="false" />
    <sodipodi:guide
       position="33.866657,24.870836"
       orientation="1,0"
       id="guide3220"
       inkscape:locked="false" />
    <sodipodi:guide
       position="32.279157,-4.1479283e-06"
       orientation="0,1"
       id="guide3222"
       inkscape:locked="false" />
    <sodipodi:guide
       position="15.345829,32.808336"
       orientation="0,1"
       id="guide3224"
       inkscape:locked="false" />
    <sodipodi:guide
       position="-4.7625023,1.0583259"
       orientation="0,1"
       id="guide3226"
       inkscape:locked="false" />
    <sodipodi:guide
       position="1.0583287,17.462496"
       orientation="1,0"
       id="guide3228"
       inkscape:locked="false" />
    <sodipodi:guide
       position="32.808327,20.108336"
       orientation="1,0"
       id="guide3230"
       inkscape:locked="false" />
    <sodipodi:guide
       position="15.874995,31.750006"
       orientation="0,1"
       id="guide3232"
       inkscape:locked="false" />
    <sodipodi:guide
       position="2.1166617,24.870836"
       orientation="1,0"
       id="guide3234"
       inkscape:locked="false" />
    <sodipodi:guide
       position="3.1749958,25.400006"
       orientation="1,0"
       id="guide3236"
       inkscape:locked="false" />
    <sodipodi:guide
       position="5.2916633,15.345824"
       orientation="1,0"
       id="guide3238"
       inkscape:locked="false" />
    <sodipodi:guide
       position="28.574997,25.400006"
       orientation="1,0"
       id="guide3240"
       inkscape:locked="false" />
    <sodipodi:guide
       position="30.691657,24.341666"
       orientation="1,0"
       id="guide3242"
       inkscape:locked="false" />
    <sodipodi:guide
       position="31.749997,21.695836"
       orientation="1,0"
       id="guide3244"
       inkscape:locked="false" />
    <sodipodi:guide
       position="21.695827,2.1166659"
       orientation="0,1"
       id="guide3246"
       inkscape:locked="false" />
    <sodipodi:guide
       position="16.404162,3.1749959"
       orientation="0,1"
       id="guide3248"
       inkscape:locked="false" />
    <sodipodi:guide
       position="26.987497,30.162491"
       orientation="0,1"
       id="guide843"
       inkscape:locked="false" />
    <sodipodi:guide
       position="30.162497,26.458325"
       orientation="0,1"
       id="guide845"
       inkscape:locked="false" />
    <sodipodi:guide
       position="20.10833,14.287491"
       orientation="0,1"
       id="guide910"
       inkscape:locked="false" />
    <sodipodi:guide
       position="19.579163,16.404158"
       orientation="0,1"
       id="guide978"
       inkscape:locked="false" />
  </sodipodi:namedview>
  <metadata
     id="metadata2631">
    <rdf:RDF>
      <cc:Work
         rdf:about="">
        <dc:format>image/svg+xml</dc:format>
        <dc:type
           rdf:resource="http://purl.org/dc/dcmitype/StillImage" />
        <dc:title>Boston Icons</dc:title>
        <cc:license
           rdf:resource="dribbble.com/chrisdiaz" />
        <dc:creator>
          <cc:Agent>
            <dc:title>Christian Díaz</dc:title>
          </cc:Agent>
        </dc:creator>
        <dc:date>2019</dc:date>
        <dc:publisher>
          <cc:Agent>
            <dc:title>Christian Díaz</dc:title>
          </cc:Agent>
        </dc:publisher>
        <dc:identifier>christiandiaz.design [at] gmail [dot] com</dc:identifier>
        <dc:subject>
          <rdf:Bag>
            <rdf:li>GNOME icon Theme</rdf:li>
          </rdf:Bag>
        </dc:subject>
        <dc:description>diazchris.deviantart.com | dribbble.com/chrisdiaz</dc:description>
      </cc:Work>
    </rdf:RDF>
  </metadata>
  <g
     inkscape:label="Capa 1"
     inkscape:groupmode="layer"
     id="layer1"
     transform="translate(-82.550003,-136.13333)">
    <g
       id="g851">
      <path
         sodipodi:nodetypes="ccccccc"
         inkscape:connector-curvature="0"
         id="path957"
         d="m 83.608329,140.89584 h 12.170834 l 3.704166,2.64583 h 15.875001 v 23.28334 l -31.750001,-1e-5 -10e-7,-25.4"
         style="fill:#7fb9ec;stroke:none;stroke-width:0.26458335px;stroke-linecap:butt;stroke-linejoin:miter;stroke-opacity:1" />
      <path
         sodipodi:nodetypes="cccccccccccccc"
         inkscape:connector-curvature="0"
         id="path959"
         d="m 98.530832,143.54166 -3.016249,2.11668 H 83.608332 v 21.16665 h 31.750008 v -23.28333 z m 0.238125,0.52917 h 16.060213 v 22.225 H 84.137499 v -20.10832 h 11.641667 z"
         style="fill:#7fb9ec;fill-opacity:1;stroke:none;stroke-width:0.26458335px;stroke-linecap:butt;stroke-linejoin:miter;stroke-opacity:1" />
      <path
         sodipodi:nodetypes="ccccccc"
         inkscape:connector-curvature="0"
         id="path845"
         d="m 84.137495,146.18752 h 11.641667 l 2.989795,-2.11667 h 16.060213 v 22.225 H 84.137495 Z"
         style="fill:#b9d9f7;fill-opacity:1;stroke:none;stroke-width:0.26458335px;stroke-linecap:butt;stroke-linejoin:miter;stroke-opacity:1" />
      <rect
         y="155.18333"
         x="84.137497"
         height="11.1125"
         width="30.691668"
         id="rect1005"
         style="opacity:0.3;fill:url(#linearGradient1029);fill-opacity:1;stroke:none;stroke-width:0.5291667;stroke-linejoin:bevel;stroke-miterlimit:4;stroke-dasharray:none;stroke-opacity:1" />
      <path
         sodipodi:nodetypes="cccccc"
         inkscape:connector-curvature="0"
         id="path843"
         d="m 84.137496,141.42502 h 11.377086 l 3.042709,2.11666 -3.042709,2.11667 H 84.137496 Z"
         style="fill:#b9d9f7;fill-opacity:1;stroke:none;stroke-width:0.26458335px;stroke-linecap:butt;stroke-linejoin:miter;stroke-opacity:1" />
      <path
         id="path869"
         transform="matrix(0.26458334,0,0,0.26458334,82.550003,136.13333)"
         d="M 46 50 L 46 98 L 82 98 L 82 66 L 82 60 L 72 50 L 46 50 z M 48 52 L 70 52 L 70 62 L 80 62 L 80 67.777344 L 48.25 96 L 48 96 L 48 52 z M 72 53 L 79 60 L 72 60 L 72 53 z M 80 70.5 L 80 96 L 78 96 L 78 94 L 76 94 L 76 96 L 74 96 L 74 94 L 72 94 L 72 96 L 70 96 L 70 94 L 68 94 L 68 96 L 66 96 L 66 94 L 64 94 L 64 96 L 62 96 L 62 94 L 60 94 L 60 96 L 58 96 L 58 94 L 56 94 L 56 96 L 51.300781 96 L 80 70.5 z M 76 80 L 62 92 L 76 92 L 76 80 z M 74 84.400391 L 74 90 L 67.400391 90 L 74 84.400391 z "
         style="fill:#7fb9ec;fill-opacity:1;stroke:none;stroke-width:1px;stroke-linecap:butt;stroke-linejoin:miter;stroke-opacity:1" />
    </g>
  </g>
</svg>
